assets/features/payment-flow/Maybank.svg

<svg width="200" height="200" viewBox="0 0 200 200" fill="none" xmlns="http://www.w3.org/2000/svg">
<rect width="200" height="200" rx="40" fill="#FFCF00"/>
<path fill-rule="evenodd" clip-rule="evenodd" d="M99.9702 50C72.373 50 50 72.384 50 100.003C50 127.589 72.373 150 99.9702 150C127.565 150 149.953 127.589 149.953 100.003C149.953 72.384 127.565 50 99.9702 50ZM99.9702 146C74.5808 146 53.991 125.38 53.991 100.003C53.991 74.6103 74.5808 54.0014 99.9702 54.0014C125.375 54.0014 145.946 74.6103 145.946 100.003C145.946 125.38 125.375 146 99.9702 146Z" fill="black"/>
<path fill-rule="evenodd" clip-rule="evenodd" d="M80.0418 97.6903C76.4655 96.8033 73.3294 100.976 71.5627 104.142C72.1711 99.8137 77.4763 92.7504 80.0418 97.6903Z" fill="black"/>
<path fill-rule="evenodd" clip-rule="evenodd" d="M72.1543 97.7603C73.3625 93.6544 76.2135 92.1605 77.7098 93.3425C75.6845 93.9859 74.1449 95.2209 72.1543 97.7603Z" fill="black"/>
<path fill-rule="evenodd" clip-rule="evenodd" d="M81.3099 104.352C83.1447 102.788 82.9623 100.509 80.1115 99.7614C77.9787 99.2045 73.4323 103.014 72.9563 107.223C74.7547 104.891 80.0419 100.612 81.3099 104.352Z" fill="black"/>
<path fill-rule="evenodd" clip-rule="evenodd" d="M109.976 115.292C110.334 109.882 105.082 107.326 104.046 101.814C103.064 96.2637 112.254 87.4127 106.446 78.332C117.403 87.1677 108.821 92.4028 114.357 99.7612C112.219 99.1513 110.079 97.1854 109.463 96.2122C106.359 100.265 117.029 105.848 109.976 115.292Z" fill="black"/>
<path fill-rule="evenodd" clip-rule="evenodd" d="M92.3614 71.7051L94.9868 73.6194C91.934 76.4375 87.8221 75.3083 84.5618 78.1599C85.9023 74.6107 91.8659 74.0901 92.3614 71.7051Z" fill="black"/>
<path fill-rule="evenodd" clip-rule="evenodd" d="M102.211 75.6889C103.473 74.298 102.316 72.2972 97.0999 71.6357C102.533 74.3315 93.7853 74.8701 93.4637 79.4272C90.6393 80.5591 88.3453 78.699 86.9184 79.9841L84.4224 78.9079C82.77 79.7586 83.0848 82.0198 84.7092 82.6991L85.0642 83.4107C83.3005 85.0465 82.4848 86.5071 84.3362 88.1402C85.3356 86.2816 85.8326 85.6536 86.9713 84.7153C88.021 85.4447 89.8751 84.9408 92.3613 82.2286L92.5772 82.2983C90.5865 89.1163 85.5444 90.2106 83.9284 89.8821C84.918 91.3594 91.3353 92.263 92.1163 89.3752C93.9705 82.8885 100.203 80.1067 94.8211 80.2098C96.2646 78.507 101.178 76.8709 102.211 75.6889ZM88.6237 83.6027L87.7523 82.3315C88.2491 83.6723 89.587 83.0277 88.8228 81.1329L91.4049 81.116L88.6237 83.6027Z" fill="black"/>
<path fill-rule="evenodd" clip-rule="evenodd" d="M104.917 72.211C107.516 73.8803 108.751 75.0288 110.454 77.0269C110.793 74.2811 109.212 68.7663 106.897 67.4951L104.917 72.211Z" fill="black"/>
<path fill-rule="evenodd" clip-rule="evenodd" d="M63.304 94.3701C64.9798 89.9689 69.0947 84.681 75.7375 80.7158C77.2507 76.7684 76.7439 74.0729 92.829 67.88C93.2383 65.4964 93.1702 62.6448 93.8215 62.6448C94.5175 62.6448 96.9077 63.671 98.5767 66.141L100.36 65.9336C100.645 64.5218 101.586 60.697 102.854 58.7993C104.013 56.9587 106.254 56.7999 109.124 59.1669C112.132 61.6006 114.228 62.6448 118.349 67.88C121.8 69.4462 127.226 71.4275 131.912 77.1333C129.885 75.8453 127.565 75.3247 125.68 75.1325C129.512 78.4211 132.034 83.9848 130.097 92.0909C129.366 84.5083 123.792 81.3423 120.393 78.9253C122.244 85.3424 114.228 83.1159 111.811 78.332L113.932 78.2123C113.661 68.4718 109.089 62.8705 107.036 61.1677C104.421 58.9747 103.01 64.2113 102.125 68.1584L99.2908 70.3319L100.037 68.2114C95.9778 68.54 91.4218 70.9236 88.6238 72.192C81.5187 75.4276 79.7202 76.9941 78.1543 82.4212C72.5289 84.7855 66.0336 91.2735 63.304 94.3701Z" fill="black"/>
<path fill-rule="evenodd" clip-rule="evenodd" d="M98.8117 93.0461C99.5592 93.9164 104.264 100.977 98.8285 110.041C100.325 103.378 96.1961 90.7168 91.6399 97.1855C94.7164 98.5263 95.7355 101.046 94.9085 103.483C93.6459 101.152 90.422 98.5792 87.2398 99.6555C85.6306 100.179 83.5355 100.196 81.9612 97.8816C79.919 94.873 83.3532 91.1513 77.4761 91.4464C84.6046 87.8292 82.5346 94.8366 85.9522 95.6554C89.9279 96.6285 90.3885 94.1614 91.7598 92.6118C92.8818 91.2375 94.9085 90.2644 97.0301 91.6748C98.0643 88.5616 96.5859 83.673 99.473 81.0472C100.56 80.0906 103.96 80.2286 105.715 81.6041C103.229 81.5679 100.272 84.5781 98.8117 93.0461Z" fill="black"/>
<path fill-rule="evenodd" clip-rule="evenodd" d="M135.086 80.6289C138.695 93.2363 137.686 105.377 133.964 112.613C134.408 108.073 130.435 101.447 132.035 93.7236C124.488 101.046 136.296 119.048 119.149 130.84C121.714 126.717 122.869 116.457 121.976 112.752L124.383 115.206C125.809 110.508 125.982 103.794 123.297 97.0818L127.034 98.9072C127.462 88.4719 119.843 87.7076 118.419 84.8547C118.419 87.8983 121.976 90.4377 122.617 94.456C120.121 93.2363 118.306 93.1166 117.028 93.2363C118.949 94.6467 123.244 102.96 121.976 109.603C120.121 108.056 118.419 107.325 116.548 107.206C118.846 110.649 119.767 119.71 116.923 123.796L115.446 119.048C114.089 124.128 110.132 126.231 107.427 126.84C110.812 123.362 110.132 117.117 105.221 115.448C100.804 113.918 95.1595 116.945 92.9183 127.466C89.6929 128.406 80.1116 126.369 85.8327 120.18C89.3351 121.379 98.222 115.412 97.6205 111.222C96.7784 105.43 91.4915 103.395 87.2931 103.447C82.1105 103.499 78.5816 108.318 74.347 110.456C70.7973 109.918 69.5891 109.43 67.7907 104.682C67.565 101.795 70.6415 99.7942 70.5885 96.8202C68.0593 97.3603 67.451 93.5148 62.5397 97.4995L62.8083 95.0813C60.9904 96.7171 60.6521 98.6649 60.616 99.066C61.4874 100.787 62.7387 102.35 65.1555 103.986C68.0425 111.69 71.0159 112.56 74.0757 112.875C74.6157 113.603 76.8764 116.3 79.7538 116.753L79.492 110.16C85.7799 103.864 90.4223 107.708 91.0473 109.361C85.4749 110.508 89.4144 122.44 80.1714 117.117C79.7802 118.352 80.3106 121.396 81.466 123.171C82.4153 131.344 92.6831 129.343 95.875 130.788C95.5339 122.84 99.9342 117.031 103.708 117.535C107.48 117.969 108.463 124.214 101.994 130.006C103.602 130.84 110.523 129.675 114.036 127.118C114.376 129.136 111.776 135.119 108.533 139.308C135.65 133.102 147.798 103.638 135.086 80.6289ZM66.5823 102.891L63.0772 99.1508L65.7651 97.2907L67.2617 97.916L65.9739 99.0116L67.1127 101.046L66.5823 102.891ZM75.5889 111.9L77.8494 110.213C77.6071 112.265 78.3534 115.014 78.3534 115.014L75.5889 111.9ZM89.7097 113.865L91.6737 114.021L91.1531 111.047L94.1267 112.073C93.8217 114.422 92.3614 115.153 88.8229 116.856L89.7097 113.865ZM82.5711 121.658L81.3964 118.84L84.2069 119.969L82.5711 121.658Z" fill="black"/>
</svg>

<svg xmlns="http://www.w3.org/2000/svg" width="200" height="200" fill="none" viewBox="0 0 200 200"><rect width="200" height="200" fill="#ffcf00" rx="40"/><path fill="#000" fill-rule="evenodd" d="M99.97 50C72.373 50 50 72.384 50 100.003 50 127.589 72.373 150 99.97 150c27.595 0 49.983-22.411 49.983-49.997C149.953 72.384 127.565 50 99.97 50m0 96c-25.39 0-45.979-20.62-45.979-45.997 0-25.393 20.59-46.002 45.98-46.002 25.404 0 45.975 20.61 45.975 46.002 0 25.377-20.571 45.997-45.976 45.997" clip-rule="evenodd"/><path fill="#000" fill-rule="evenodd" d="M80.042 97.69c-3.576-.887-6.713 3.286-8.48 6.452.61-4.328 5.914-11.392 8.48-6.452m-7.888.07c1.209-4.106 4.06-5.6 5.556-4.418-2.025.644-3.565 1.879-5.556 4.418m9.156 6.592c1.835-1.564 1.652-3.843-1.198-4.59-2.133-.558-6.68 3.252-7.156 7.461 1.799-2.332 7.086-6.611 8.354-2.871m28.666 10.94c.358-5.41-4.894-7.966-5.93-13.478-.982-5.55 8.208-14.401 2.4-23.482 10.957 8.836 2.375 14.07 7.911 21.43-2.138-.61-4.278-2.577-4.894-3.55-3.104 4.053 7.566 9.636.513 19.08M92.361 71.705l2.626 1.914c-3.053 2.819-7.165 1.69-10.425 4.54 1.34-3.548 7.304-4.069 7.8-6.454" clip-rule="evenodd"/><path fill="#000" fill-rule="evenodd" d="M102.211 75.689c1.262-1.391.105-3.392-5.111-4.053 5.433 2.696-3.315 3.234-3.636 7.791-2.825 1.132-5.119-.728-6.546.557l-2.496-1.076c-1.652.85-1.337 3.112.287 3.791l.355.712c-1.763 1.635-2.58 3.096-.728 4.73 1-1.86 1.497-2.487 2.635-3.426 1.05.73 2.904.226 5.39-2.486l.216.07c-1.99 6.817-7.033 7.912-8.649 7.583.99 1.477 7.407 2.381 8.188-.507 1.855-6.487 8.087-9.268 2.705-9.165 1.444-1.703 6.357-3.34 7.39-4.521m-13.587 7.914-.872-1.271c.497 1.34 1.835.696 1.07-1.2l2.583-.016zm16.293-11.392c2.599 1.67 3.834 2.818 5.537 4.816.339-2.746-1.242-8.26-3.557-9.532z" clip-rule="evenodd"/><path fill="#000" fill-rule="evenodd" d="M63.304 94.37c1.676-4.401 5.79-9.689 12.433-13.654 1.514-3.948 1.007-6.643 17.092-12.836.41-2.384.341-5.235.993-5.235.695 0 3.086 1.026 4.755 3.496l1.783-.207c.285-1.412 1.226-5.237 2.494-7.135 1.159-1.84 3.4-2 6.27.368 3.008 2.434 5.104 3.478 9.225 8.713 3.451 1.566 8.877 3.547 13.563 9.253-2.027-1.288-4.347-1.808-6.232-2 3.832 3.288 6.354 8.852 4.417 16.958-.731-7.583-6.305-10.749-9.704-13.166 1.851 6.417-6.165 4.19-8.582-.593l2.121-.12c-.271-9.74-4.843-15.342-6.896-17.044-2.615-2.193-4.026 3.043-4.911 6.99l-2.834 2.174.746-2.12c-4.06.328-8.615 2.712-11.413 3.98-7.105 3.236-8.904 4.802-10.47 10.23-5.625 2.364-12.12 8.852-14.85 11.948" clip-rule="evenodd"/><path fill="#000" fill-rule="evenodd" d="M98.812 93.046c.747.87 5.452 7.931.017 16.995 1.496-6.663-2.633-19.324-7.19-12.855 3.077 1.34 4.097 3.86 3.27 6.297-1.263-2.331-4.487-4.904-7.67-3.828-1.608.524-3.704.541-5.278-1.773-2.042-3.009 1.392-6.73-4.485-6.436 7.129-3.617 5.059 3.39 8.476 4.21 3.976.972 4.436-1.495 5.808-3.044 1.122-1.374 3.148-2.348 5.27-.937 1.034-3.113-.444-8.002 2.443-10.628 1.087-.956 4.487-.818 6.242.557-2.486-.036-5.443 2.974-6.903 11.442" clip-rule="evenodd"/><path fill="#000" fill-rule="evenodd" d="M135.086 80.629c3.609 12.607 2.6 24.748-1.122 31.984.444-4.54-3.529-11.166-1.929-18.89-7.547 7.323 4.261 25.325-12.886 37.117 2.565-4.123 3.72-14.383 2.827-18.088l2.407 2.454c1.426-4.698 1.599-11.412-1.086-18.124l3.737 1.825c.428-10.435-7.191-11.2-8.615-14.052 0 3.043 3.557 5.583 4.198 9.601-2.496-1.22-4.311-1.34-5.589-1.22 1.921 1.41 6.216 9.724 4.948 16.367-1.855-1.547-3.557-2.278-5.428-2.397 2.298 3.443 3.219 12.504.375 16.59l-1.477-4.748c-1.357 5.08-5.314 7.183-8.019 7.792 3.385-3.478 2.705-9.723-2.206-11.392-4.417-1.53-10.062 1.497-12.303 12.018-3.225.94-12.806-1.097-7.085-7.286 3.502 1.199 12.389-4.768 11.788-8.958-.843-5.792-6.13-7.827-10.328-7.775-5.183.052-8.711 4.871-12.946 7.009-3.55-.538-4.758-1.026-6.556-5.774-.226-2.887 2.85-4.888 2.797-7.862-2.529.54-3.137-3.305-8.048.68l.268-2.419c-1.818 1.636-2.156 3.584-2.192 3.985.871 1.721 2.123 3.284 4.54 4.92 2.886 7.704 5.86 8.574 8.92 8.889.54.728 2.8 3.425 5.678 3.878l-.262-6.593c6.288-6.296 10.93-2.452 11.555-.799-5.572 1.147-1.633 13.079-10.876 7.756-.39 1.235.14 4.279 1.295 6.054.95 8.173 11.217 6.172 14.409 7.617-.341-7.948 4.06-13.757 7.833-13.253 3.772.434 4.755 6.679-1.714 12.471 1.608.834 8.529-.331 12.042-2.888.34 2.018-2.26 8.001-5.503 12.19a40.097 40.097 0 0 0 26.553-58.68M66.582 102.89l-3.505-3.74 2.688-1.86 1.497.625-1.288 1.096 1.139 2.034zm9.007 9.009 2.26-1.687c-.242 2.052.504 4.801.504 4.801zm14.12 1.965 1.965.156-.52-2.974 2.973 1.026c-.305 2.349-1.766 3.08-5.304 4.783zm-7.138 7.793-1.175-2.818 2.81 1.129z" clip-rule="evenodd"/></svg>
